static/images/icons/design_review.svg

<svg fill="none" height="82" viewBox="0 0 80 82" width="80" xmlns="http://www.w3.org/2000/svg"><g fill="currentColor"><path d="m78.3332 50.5833h-7.6666v-6.7083c0-4.2934-3.1625-7.8392-7.2642-8.4909 2.07-1.5716 3.4308-4.0441 3.4308-6.8425 0-4.7533-3.8716-8.625-8.625-8.625-4.7533 0-8.625 3.8717-8.625 8.625 0 2.7984 1.3609 5.2709 3.4309 6.8425-4.1017.6517-7.2642 4.1975-7.2642 8.4909v6.7083h-11.5v-6.7083c0-4.2934-3.1625-7.8392-7.2642-8.4909 2.07-1.5716 3.4309-4.0441 3.4309-6.8425 0-4.7533-3.8717-8.625-8.625-8.625-4.7534 0-8.625 3.8717-8.625 8.625 0 2.7984 1.3608 5.2709 3.4308 6.8425-4.1016.6517-7.26415 4.1975-7.26415 8.4909v6.7083h-7.66666c-.53667 0-.958338.4217-.958338.9583v3.8334c0 .5366.421668.9583.958338.9583h2.87499v23.9583c0 .5367.42167.9583.95834.9583h68.99998c.5367 0 .9583-.4216.9583-.9583v-23.9583h2.875c.5367 0 .9584-.4217.9584-.9583v-3.8334c0-.5366-.4217-.9583-.9584-.9583zm-26.8333-22.0417c0-3.6991 3.0092-6.7083 6.7083-6.7083 3.6992 0 6.7084 3.0092 6.7084 6.7083 0 3.6992-3.0092 6.7084-6.7084 6.7084-3.6991 0-6.7083-3.0092-6.7083-6.7084zm-3.8333 15.3334c0-3.6992 3.0091-6.7084 6.7083-6.7084h7.6667c3.6991 0 6.7083 3.0092 6.7083 6.7084v6.7083h-21.0833zm-32.5833-15.3334c0-3.6991 3.0091-6.7083 6.7083-6.7083 3.6991 0 6.7083 3.0092 6.7083 6.7083 0 3.6992-3.0092 6.7084-6.7083 6.7084-3.6992 0-6.7083-3.0092-6.7083-6.7084zm-3.8334 15.3334c0-3.6992 3.0092-6.7084 6.7084-6.7084h7.6666c3.6992 0 6.7084 3.0092 6.7084 6.7084v6.7083h-21.0834zm62.2917 35.4583h-67.08335v-23h67.08335zm3.8333-24.9167h-2.875-68.99998-2.875v-1.9166h7.66668 23 13.4166 23 7.6667z"/><path d="m69.7082 7.45834c0-3.75667-5.4625-6.70834-12.4584-6.70834-6.9958 0-12.4583 2.95167-12.4583 6.70834 0 3.75666 5.4625 6.70836 12.4583 6.70836 1.2842 0 2.5684-.115 3.8142-.3259l5.405 2.1659c.115.0575.2492.0766.3642.0766.2875 0 .5558-.1341.7475-.345.2683-.3258.2875-.7858.0575-1.1308l-1.5717-2.3575c2.3192-1.2458 3.6417-2.95166 3.6417-4.79166zm-5.4242 3.50746c-.2683.115-.46.3259-.5558.6134-.0767.2683-.0384.575.115.805l.46.7091-2.7984-1.1116c-.115-.0384-.23-.0767-.3641-.0767-.0575 0-.115 0-.1725.0192-1.1884.2108-2.4534.3258-3.7184.3258-6.21 0-10.5416-2.53-10.5416-4.79166 0-2.26167 4.3316-4.79167 10.5416-4.79167s10.5417 2.53 10.5417 4.79167c0 1.28416-1.3033 2.58746-3.5075 3.50746z"/><path d="m61.0832 6.5h-7.6666c-.5367 0-.9583.42167-.9583.95833 0 .53667.4216.95834.9583.95834h7.6666c.5367 0 .9584-.42167.9584-.95834 0-.53666-.4217-.95833-.9584-.95833z"/><path d="m16.2525 15.7383c.1917.2109.46.345.7475.345.115 0 .2492-.0191.3642-.0766l5.405-2.1659c1.2458.2109 2.53.3259 3.8141.3259 6.9959 0 12.4584-2.9517 12.4584-6.70836 0-3.75667-5.4625-6.70834-12.4584-6.70834-6.9958 0-12.4583 2.95167-12.4583 6.70834 0 1.84 1.3225 3.54586 3.6417 4.79166l-1.5717 2.3383c-.23.3642-.2108.805.0575 1.15zm-.2108-8.27996c0-2.26167 4.3316-4.79167 10.5416-4.79167s10.5417 2.53 10.5417 4.79167c0 2.26166-4.3317 4.79166-10.5417 4.79166-1.265 0-2.53-.115-3.7375-.3258-.1725-.0192-.3641-.0192-.5175.0575l-2.7983 1.1116.46-.7091c.1533-.23.2108-.5367.115-.805-.0767-.2684-.2875-.4984-.5558-.6134-2.2042-.92-3.5075-2.2233-3.5075-3.50746z"/><path d="m22.7498 8.41667h7.6667c.5367 0 .9583-.42167.9583-.95834 0-.53666-.4216-.95833-.9583-.95833h-7.6667c-.5366 0-.9583.42167-.9583.95833 0 .53667.4217.95834.9583.95834z"/></g></svg>

<svg width="80" height="82" viewBox="0 0 80 82" fill="none" xmlns="http://www.w3.org/2000/svg">
<path d="M78.3332 50.5833H70.6666V43.875C70.6666 39.5816 67.5041 36.0358 63.4024 35.3841C65.4724 33.8125 66.8332 31.34 66.8332 28.5416C66.8332 23.7883 62.9616 19.9166 58.2082 19.9166C53.4549 19.9166 49.5832 23.7883 49.5832 28.5416C49.5832 31.34 50.9441 33.8125 53.0141 35.3841C48.9124 36.0358 45.7499 39.5816 45.7499 43.875V50.5833H34.2499V43.875C34.2499 39.5816 31.0874 36.0358 26.9857 35.3841C29.0557 33.8125 30.4166 31.34 30.4166 28.5416C30.4166 23.7883 26.5449 19.9166 21.7916 19.9166C17.0382 19.9166 13.1666 23.7883 13.1666 28.5416C13.1666 31.34 14.5274 33.8125 16.5974 35.3841C12.4958 36.0358 9.33325 39.5816 9.33325 43.875V50.5833H1.66659C1.12992 50.5833 0.708252 51.005 0.708252 51.5416V55.375C0.708252 55.9116 1.12992 56.3333 1.66659 56.3333H4.54158V80.2916C4.54158 80.8283 4.96325 81.2499 5.49992 81.2499H74.4999C75.0366 81.2499 75.4582 80.8283 75.4582 80.2916V56.3333H78.3332C78.8699 56.3333 79.2916 55.9116 79.2916 55.375V51.5416C79.2916 51.005 78.8699 50.5833 78.3332 50.5833ZM51.4999 28.5416C51.4999 24.8425 54.5091 21.8333 58.2082 21.8333C61.9074 21.8333 64.9166 24.8425 64.9166 28.5416C64.9166 32.2408 61.9074 35.25 58.2082 35.25C54.5091 35.25 51.4999 32.2408 51.4999 28.5416ZM47.6666 43.875C47.6666 40.1758 50.6757 37.1666 54.3749 37.1666H62.0416C65.7407 37.1666 68.7499 40.1758 68.7499 43.875V50.5833H47.6666V43.875ZM15.0833 28.5416C15.0833 24.8425 18.0924 21.8333 21.7916 21.8333C25.4907 21.8333 28.4999 24.8425 28.4999 28.5416C28.4999 32.2408 25.4907 35.25 21.7916 35.25C18.0924 35.25 15.0833 32.2408 15.0833 28.5416ZM11.2499 43.875C11.2499 40.1758 14.2591 37.1666 17.9583 37.1666H25.6249C29.3241 37.1666 32.3333 40.1758 32.3333 43.875V50.5833H11.2499V43.875ZM73.5416 79.3333H6.45825V56.3333H73.5416V79.3333ZM77.3749 54.4166H74.4999H5.49992H2.62492V52.5H10.2916H33.2916H46.7082H69.7082H77.3749V54.4166Z" fill="currentColor"/>
<path d="M69.7082 7.45834C69.7082 3.70167 64.2457 0.75 57.2498 0.75C50.254 0.75 44.7915 3.70167 44.7915 7.45834C44.7915 11.215 50.254 14.1667 57.2498 14.1667C58.534 14.1667 59.8182 14.0517 61.064 13.8408L66.469 16.0067C66.584 16.0642 66.7182 16.0833 66.8332 16.0833C67.1207 16.0833 67.389 15.9492 67.5807 15.7383C67.849 15.4125 67.8682 14.9525 67.6382 14.6075L66.0665 12.25C68.3857 11.0042 69.7082 9.29834 69.7082 7.45834ZM64.284 10.9658C64.0157 11.0808 63.824 11.2917 63.7282 11.5792C63.6515 11.8475 63.6898 12.1542 63.8432 12.3842L64.3032 13.0933L61.5048 11.9817C61.3898 11.9433 61.2748 11.905 61.1407 11.905C61.0832 11.905 61.0257 11.905 60.9682 11.9242C59.7798 12.135 58.5148 12.25 57.2498 12.25C51.0398 12.25 46.7082 9.72 46.7082 7.45834C46.7082 5.19667 51.0398 2.66667 57.2498 2.66667C63.4598 2.66667 67.7915 5.19667 67.7915 7.45834C67.7915 8.7425 66.4882 10.0458 64.284 10.9658Z" fill="currentColor"/>
<path d="M61.0832 6.5H53.4166C52.8799 6.5 52.4583 6.92167 52.4583 7.45833C52.4583 7.995 52.8799 8.41667 53.4166 8.41667H61.0832C61.6199 8.41667 62.0416 7.995 62.0416 7.45833C62.0416 6.92167 61.6199 6.5 61.0832 6.5Z" fill="currentColor"/>
<path d="M16.2525 15.7383C16.4442 15.9492 16.7125 16.0833 17 16.0833C17.115 16.0833 17.2492 16.0642 17.3642 16.0067L22.7692 13.8408C24.015 14.0517 25.2992 14.1667 26.5833 14.1667C33.5792 14.1667 39.0417 11.215 39.0417 7.45834C39.0417 3.70167 33.5792 0.75 26.5833 0.75C19.5875 0.75 14.125 3.70167 14.125 7.45834C14.125 9.29834 15.4475 11.0042 17.7667 12.25L16.195 14.5883C15.965 14.9525 15.9842 15.3933 16.2525 15.7383ZM16.0417 7.45834C16.0417 5.19667 20.3733 2.66667 26.5833 2.66667C32.7933 2.66667 37.125 5.19667 37.125 7.45834C37.125 9.72 32.7933 12.25 26.5833 12.25C25.3183 12.25 24.0533 12.135 22.8458 11.9242C22.6733 11.905 22.4817 11.905 22.3283 11.9817L19.53 13.0933L19.99 12.3842C20.1433 12.1542 20.2008 11.8475 20.105 11.5792C20.0283 11.3108 19.8175 11.0808 19.5492 10.9658C17.345 10.0458 16.0417 8.7425 16.0417 7.45834Z" fill="currentColor"/>
<path d="M22.7498 8.41667H30.4165C30.9532 8.41667 31.3748 7.995 31.3748 7.45833C31.3748 6.92167 30.9532 6.5 30.4165 6.5H22.7498C22.2132 6.5 21.7915 6.92167 21.7915 7.45833C21.7915 7.995 22.2132 8.41667 22.7498 8.41667Z" fill="currentColor"/>
</svg>
